X: 871
T: Gönlümün Bir Hali Var ki
C: Emin Ongan
O: Turkey
F: http://compmusic.upf.edu/node/140
N: ussak--sarki--musemmen--gonlumun_bir--emin_ongan
N: makam= ussak
N: form= sarki
N: usul= musemmen = 8/8
M: 8/8
L: 1/16
K: C _2/4B   
Q: 1/4=120
%%MIDI tuningsystem comma53
c4 BAA2 {c}BAA6  | B2A2 B2AG G^3/4FG6  | \
w:  Gön lü *  mün  *  *  *  bir   |  ha *  li  var  *  *  *  ki   | 
A4 B2c2 d2e4ed  | 
w:  gam  de ğil  *  kas  | 
d2c2 {f}edd4c2 B2A2  | c4 BAA2 {c}BAA6  | \
w:  vet  *  *  de *  ğil   SAZ  |  Gön lü *  mün  *  *  *  bir   | 
B2A2 B2AG G^3/4FG6  | 
w:  ha *  li  var  *  *  *  ki   | 
A4 B2c2 d2e4ed  | d2c2 {f}edd4de ^3/4fag2  | \
w:  gam  de ğil  *  kas  |  vet  *  *  de *  ğil   SAZ  | 
^3/4f4 g2ag f_3/4ed4(3c_1/4Bc  | 
w:  Neş e  der *  *  *  sen   | 
_3/4e2d2 e2dc c_1/4Bc6  | d4 _7/8e2^f2 a2g2 fede  | \
w:  hiç  *  de ğil  *  *  *  mah  |  zu ni  i  *  fir  | 
g2^f_7/8e {f}edd4GA _1/4Bcd2  | 
w:  kat  *  *  *  de *  ğil   SAZ  | 
e2d2 {e}dccB BAA4B2  | d4 {e}dccB BAG6  | \
w:  Neş *  *  e  *  der *  *  *  sen   |  hiç  *  de *  ğil  *  *  *  mah  | 
A4 B2c2 e2d2 cBAB  | 
w:  zu ni  i  *  fir  | 
d2cB {c}BAA4_ba g^fg2  | g4 g2ag {a}g^fg4(3fef  | 
w:  kat  *  *  *  de *  ğil   SAZ  |  An la tır  *  *  *  *  bel  | 
a2g2 {a}g^ff_7/8e edd4z2  | _7/8e4 {f}eded e^fg{a}g fedc  | 
w:  ki  *  *  bu  *  söz *  *  *  ler   |  der *  di *  mi  *  *  *  er  | 
g2^f_7/8e {f}edd4de fga2  | g4 a2a2 d'2c'_1/4b ag^f_3/4e  | 
w:  bâ *  *  *  bı *  na   SAZ  |  An la tır  *  bel  | 
d2e2 dccB BAA6  | f4 {g}fefe fg{a}g2 {a}fed2  | \
w:  ki  *  bu  *  söz *  *  *  ler   |  der *  di *  mi  *  *  *  *  er  | 
d2c2 {f}edd4de ^fag2  | 
w:  bâ *  *  bı *  na   SAZ  | 
^3/4f4 g2ag f_3/4ed4(3c_1/4Bc  | _3/4e2d2 e2dc c_1/4Bc6  | \
w:  Neş e  der *  *  *  sen   |  hiç  *  de ğil  *  *  *  mah  | 
d4 _7/8e2^f2 a2g2 fede  | 
w:  zu ni  i  *  fir  | 
g2^f_7/8e {f}edd4GA _1/4Bcd2  | e2d2 {e}dccB BAA4B2  | 
w:  kat  *  *  *  de *  ğil   SAZ  |  Neş *  *  e  *  der *  *  *  sen   | 
d4 {e}dccB BAG6  | A4 B2c2 e2d2 cBAB  | \
w:  hiç  *  de *  ğil  *  *  *  mah  |  zu ni  i  *  fir  | 
d2cB {c}BAA4|
w:  kat  *  *  *  de *  ğil    | 


